// Copyright © 2026 Jean d'Arc
// SPDX-License-Identifier: MIT
shader_type spatial;
render_mode blend_add, depth_draw_opaque, cull_disabled, unshaded, ambient_light_disabled, fog_disabled;

void fragment() {
	ALBEDO = vec3(0.0);
}
